!!!OTL: 99l. Der Siebenhueppel.
!!!ODT: 1860
!!!ARE: Europa, Mitteleuropa, Deutschland, Mark, Luckenwalde; Jueterbogk
!!!SCT: E0991
!!!TXL: @@DE
!!!YEM: Copyright 1995, estate of Helmut Schaffrath.
**kern	**text	**text
*ICvox	*	*
*M2/4	*	*
*k[b-e-]	*	*
*B-:	*	*
=1	=1	=1
!LO:TX:a:t=Munter.	!	!
!LO:TX:a:t=Aus der Umgegend von Luckenwalde und Jüterbogk 1860.	!	!
!LO:TX:a:t=Alter märkiſcher Volkstanʒ (nicht der Siebenſprung)	!	!
{8f	Willſt	[Anderer Text:_1
8b-	du	2
8b-	mei-	3
8b-	-nen	4
=2	=2	=2
8a	Wil-	5
8cc	-helm	6
4f}	hab'n,	ſieb'n
=3	=3	=3
{8f	mußt	wo
8ee-	du	iſt
8ee-	ro-	denn
8ee-	-the	mein
=4	=4	=4
8dd	Bän-	Schatʒ
8ff	-der	ge-
4b-}	trag'n.	-blieb'n?
=5	=5	=5
{8b-	Ro-	Jn
8dd	-the	Ber-
8ff	Bän-	-lin,
8ff	-der	.
=6	=6	=6
8ee-	trag	in
8cc	ich	Stet-
4dd}	nicht!	-tin,
=7	=7	=7
{8b-	Kriegſt	wo
8b-	auch	die
8cc	mei-	hüb-
8cc	-nen	-ſchen
=8	=8	=8
8a	Wil-	Ro-
8a	-helm	-ſen
4b-}	nicht.	blühn.]
==	==	==
!!!AGN: Tanz - Lied, Reigen
!!!ONB: ESAC (Essen Associative Code) Database: ERK2
!!!AMT: simple duple
!!!AIN: vox
!!!EED: Helmut Schaffrath
!!!EEV: 1.0
!!!GTL: Tanz- und Spiellieder
!!!URL-scan: https://rosdok.uni-rostock.de/mcrviewer/recordIdentifier/rosdok_ppn745177662/iview2/phys_0759.iview2?x=25.14321134096099&y=2153.910743481014&scale=0.6546206717328796&rotation=0&layout=singlePageLayout
!!!ENC: Anna Maria Matuszewska
!!!EEV: 2024/12/20
*-	*-	*-
